X: 16470
T: Hag's Dream, The
R: slip jig
M: 9/8
K: Gmajor
|:D|GBG B2 c dBG|GB/A/G BG/A/B AFD|GBG B2 c dBG|B>dB cAF G2:|
|:E|DFD F2 G AFD|B^AB F2 G =AFD|DF/E/D F2 G A>FD|B/c/dB cAF G2:|

